!!!!SEGMENT: pl-wtm--r-730-33-m_moniuszko-stanislaw--dalibogrze.krn
!!!cenid: 18xx:1713
!!!COM: Moniuszko, Stanisław
!!!COM-rismID: pe30008351
!!!CDT: 1819/05/05-1872/06/04
!!!CNT: Polish
!!!OTL: Dalibógrze
!!!PDT:
!!!AGN: Secular
!!!SMS-siglum: PL-Wtm
!!!SMS-shelfmark: R 730/33/M
!!!SMS-shelfwork: W
!!!SMS-variant:
!!!SMS-altvar:
!!!NIFC-rismSourceID: 1001099845
!!!NIFC-islandoraID:
!!!URL-pdf-islandora:
!!!URL-scan:
!!!ONB-nifc: Skan 0038, No. 783
!!!AIN: 1 forte 1 vox
!!!key:
**kern	**kern	**dynam	**kern
*part2	*part2	*part2	*part1
*staff3	*staff2	*	*staff1
*Iforte	*Iempty	*	*Ivox
*I"[Fortepian]	*	*	*I"[Głos]
*I'[pf]	*	*	*I'[S]
*clefF4	*clefG2	*	*clefG2
*k[f#c#g#d#]	*k[f#c#g#d#]	*	*k[f#c#g#d#]
*E:	*E:	*	*E:
*M2/4	*M2/4	*	*M2/4
=1	=1	=1	=1
!	!LO:TX:t=P:global:problem=caudy wszystkich nut po prawej	!LO:DY:rj	!LO:TX:a:i:t="Dalibógże" Maſsalskiego.
8E'\	8g#/ 8e/ 8B'/	p	2r
8r	8r	.	.
[4BB/	[4b/ [<4f#/ [<4d#/ 4B^/	.	.
=2	=2	=2	=2
8BB/L]	8b/]L 8f#/] 8d#/] 8B/	.	2r
8E'/	8g#/ 8e/ 8B'/	.	.
8BB'/	8b/ 8f#/ 8d#/ 8B'/	.	.
8E'/J	8g#/J 8e/ 8B'/	.	.
=3	=3	=3	=3
8BB'/	8b/ 8f#/ 8d#/ 8B'/	.	2r
8r	8r	.	.
[4E^\	[4g#/ [>4e/ [4B^/	.	.
=4	=4	=4	=4
8E\L]	8g#/]L 8e/] 8B/]	.	4r
8BB'\	8b/ 8f#/ 8d#/ 8B'/	.	.
!	!	!	!LO:TX:t=P:problem=kaudy różnie
8E'\	8g#/ 8e/ 8B'/	.	8ee\
8E'\J	8g#/J 8e/ 8B'/	.	8ee\
=5	=5	=5	=5
*	*tremolo	*	*
8E'\L	8g#/ 8e/L	.	8g#/
8D#'\	8g#/ 8e/	.	8g#/
8C#'\	8g#/ 8e/	.	8g#/
8BB'\J	8g#/ 8e/J	.	8g#/
=6	=6	=6	=6
4AA/	8r	.	8b/
.	8f#/ 8e/ 8c#/L	.	8a/
4r	8f#/ 8e/ 8c#/	.	8cc#\
.	8f#/ 8e/ 8c#/J	.	8cc#\
=7	=7	=7	=7
8BB'/L	8f#/ 8d#/ 8B/L	.	8f#/
8AA'/	8f#/ 8d#/ 8B/	.	8f#/
8GG#'/	8f#/ 8d#/ 8B/	.	8f#/
8FF#'/J	8f#/ 8d#/ 8B/J	.	8f#/
*	*Xtremolo	*	*
=8	=8	=8	=8
8EE/	8r	.	8a/
8r	8g#/ 8e/ 8B/	.	8g#/
8D#/ 8DD#/	8r	.	8a^/
8r	8g#/ 8f#/ 8B#X/	.	8g#/
=9	=9	=9	=9
8C#/ 8CC#/	8r	.	8a^/
8r	8g#/ 8e/ 8c#/	.	8g#/
8BB#X/ 8BBB#X/	8r	.	8a^/
8r	8g#/ 8f#/ 8d#/	.	8g#/
=10	=10	=10	=10
8C#/ 8CC#/	8r	.	8dd#^\
8r	8g#/L 8e'/	.	8cc#\
!	!LO:TX:t=P:skreślenia:problem	!	!
8C#\L	(8ee/ 8g#/	.	8.ee^\
8D#\J	8dd#/J 8f#/)	.	.
.	.	.	16dd#\
!!LO:LB:g=original
=11	=11	=11	=11
8E\	8r	.	8dd#\
8r	8cc#/ 8g#/ 8e/	.	8cc#\
8F#\	8r	.	8g#/
8r	(8a#X/ 8e/ (8c#/	.	8a#X/
=12	=12	=12	=12
4BB/	8b/ 8d#/ 8B/))	.	8cc#\
*	*tremolo	*	*
.	8b/ 8B/L	.	8b\
4r	8b/ 8B/	.	8.cc#\
.	8b/ 8B/J	.	.
.	.	.	16b\
*	*Xtremolo	*	*
=13	=13	=13	=13
*^	*	*	*
(2E#X/	[2BB\	(2g#/ (2c##X/	>	8b/
.	.	.	.	8a/
.	.	.	]	8a/
.	.	.	.	8g#X/
=14	=14	=14	=14	=14
8F#/)	8BB\]	8a/ 8d#/))	.	8b\
*	*	*tremolo	*	*
8rc	8rEE	8b/ 8B/L	.	8a\
4rc	4rEE	8b/ 8B/	.	8.cc#\
.	.	8b/ 8B/J	.	.
.	.	.	.	16b\
*	*	*Xtremolo	*	*
=15	=15	=15	=15	=15
2E#X/	[2BB\	(2g#/ (2c##X/	.	8b\
.	.	.	.	8a\
.	.	.	.	8a\
.	.	.	.	8g#\
=16	=16	=16	=16	=16
(<4F#/	2BB\]	4a/ 4d#/))	.	8b^\
.	.	.	.	8a\
4E#X/	.	(4g#/ 4c##X/	.	8a\
.	.	.	.	8g#\
=17	=17	=17	=17	=17
4F#/	2BB\	4a/ 4d#/	.	8b\
.	.	.	.	8a\
!	!	!LO:TX:t=P:problem=jeden wykreślony takt	!	!
4E/)	.	4g#/ 4c##X/)	.	8a\
.	.	.	.	8g#\
=18	=18	=18	=18	=18
!	!	!	!	!LO:TX:t=P:problem=skreślona fermata
4F#;/	4BB\	4a/ 4d#;/	.	16b/LL
.	.	.	.	16a#X;/JJ
.	.	.	.	8an/
8D#'/L	4BB'\yy	8a/L 8f#/ 8B'/	<	8ff#\
8Dn'/J	.	8a/J 8f#/ 8B#X'/	.	8ff#\
*v	*v	*	*	*
=19	=19	=19	=19
8C#'/L	8a/L 8f#/ 8c#'/	.	8.ff#^\
8Cn'/	8a/ 8f#/ 8dn'/	.	.
.	.	.	16a/
8BB'J/	8a/J 8f#/ 8d#X'/	[	8a/
8r	8a/ 8f#/ 8d#'/	p	8a/
=20	=20	=20	=20
8E\	8r	.	8a/
8r	8g#/ 8e'/	.	8g#/
8C#'/	8r	.	8ee\
8r	8ee\ 8g#\ 8e\	.	8ee\
!!LO:LB:g=original
=21	=21	=21	=21
8AA/	8r	.	8f#/
8r	8f#/ 8e/ 8c#/	.	8g#/
8BB/	8r	.	8.b\
8r	8f#/ 8d#/ 8B/	.	.
.	.	.	16a\
=22	=22	=22	=22
*2\right	*	*	*
2E\	8r	.	8g#/
*	*tremolo	*	*
.	8g#/ 8e/ 8B/L	.	8b\
.	8g#/ 8e/ 8B/	.	8ff#\
.	8g#/ 8e/ 8B/J	.	8ee\
=23	=23	=23	=23
2AA/	8r	.	8dd#\
.	8f#/ 8c#/ 8A/L	.	8cc#\
.	8f#/ 8c#/ 8A/	.	8b\
.	8f#/ 8c#/ 8A/J	.	8a\
*	*Xtremolo	*	*
=24	=24	=24	=24
8BB/	8e/ 8B/ 8G#/	.	8g#/
8BB/L	8g#/L 8e/	.	16a/LL
.	.	.	16g#/JJ
8BB/	8a/ 8f#/ 8d#/	.	8f#/
8BB/J	8a#X/J 8f##X/ 8e/ 8c#/	.	8e/
=25	=25	=25	=25
*	*	*	*2\right
8BB/	8b/ 8g#/ 8B/	.	2b\
8r	8r	.	.
!	!LO:TX:t=P:skreślenia:problem	!	!
(4F#\ (4BB\	(4a/ (4d#/	.	.
=26	=26	=26	=26
8E\))	8g#/ 8e/))	.	4e/
8r	8r	.	.
[4BB^/	[4b/ [4f#/ [4d#/ [4B/	.	4r
=27:|!	=27:|!	=27:|!	=27:|!
8BB/L]	8b/]L 8f#/] 8d#/] 8B/]	.	2r
8E/	8g#/ 8e/ 8B/	.	.
8BB/	8b/ 8f#/ 8d#/ 8B/	.	.
8E/J	8g#/J 8e/ 8B/	.	.
=28	=28	=28	=28
8BB/	8b/ 8f#/ 8d#/ 8B/	.	2r
8r	8r	.	.
[4E\	[4g#/ [>4e/ [4B^/	.	.
=29	=29	=29	=29
8E\]	8g#/] 8e/] 8B/]	.	2r
8B\L 8E\	8b/L 8g#/	f	.
8B\ 8E\	8g#/ 8e/	.	.
8B\J 8E\	8b/J 8g#/	.	.
=30	=30	=30	=30
*	*2\right	*	*
2B\ 2E;\	2ee\ 2g#\ 2e;\	.	2r;
==	==	==	==
*-	*-	*-	*-
!!!system-decoration: [s1{(s2,s3)}]
!!!RDF**kern: > = above
!!!RDF**kern: < = below
!!!EED: Leszek Kubiak
!!!EEV: 2021-04-21
!!!ENC: Mateusz Solarz
!!!END: 2021-04-01
!!!YEC: Copyright 2022 Narodowy Instytut Fryderyka Chopina (https://polishscores.org)
!!!YEM: Licence CC BY 4.0 (https://creativecommons.org/licenses/by/4.0)
